!!!COM: Samuel Scheidt
!!!OPR: Tabulatura nova
!!!OTL: 11. Canon a 3 Voc. in Unisono. Hymnus.
!!!YOR: S. Scheidt, Werke, edited by G. Harms and C. Mahrenholz
!!!YOR: Vol. VI/1, Hamburg (1923-1962)
**kern	**kern	**kern
*CF	*conseq	*guida
*M4/2	*M4/2	*M4/2
*k[]	*k[]	*k[]
=1	=1	=1
0r	2r	2.ee
.	2.ee	.
.	.	4dd
.	.	4.cc
.	4dd	.
.	.	8b
.	4.cc	4cc
.	.	8f
.	8b	8g
=2	=2	=2
1r	4cc	4.a
.	8f	.
.	8g	8b
.	4.a	4cc
.	.	2ee
.	8b	.
1A	4cc	.
.	2ee	8cc
.	.	8dd
.	.	4ee
.	8cc	4ee
.	8dd	.
=3	=3	=3
(1G	4ee	4b
.	4ee	4cc
.	4b	4dd
.	4cc	8cc
.	.	8b
1F	4dd	4a
.	8cc	4b
.	8b	.
.	4a	4cc
.	4b	8b
.	.	8a
=4	=4	=4
1E	4cc	2g
.	8b	.
.	8a	.
.	2g	4r
.	.	4cc
1F)	4r	2a
.	4cc	.
.	2a	4r
.	.	4a
=5	=5	=5
1D	4r	2f
.	4a	.
.	2f	4r
.	.	4a
1F	4r	4a
.	4a	4a
.	4a	4r
.	4a	4dd
=6	=6	=6
1F	4r	4cc
.	4dd	4a
.	4cc	4r
.	4a	4dd
(1G	4r	4b
.	4dd	4g
.	4b	4r
.	4g	4ee
=7	=7	=7
1A)	4r	4cc
.	4ee	4a
.	4cc	8ee
.	.	8dd
.	4a	8cc
.	.	8b
1A	8ee	2a
.	8dd	.
.	8cc	.
.	8b	.
.	2a	4r
.	.	4e
=8	=8	=8
1G	4r	4.g
.	4e	.
.	.	8f
.	4.g	4e
.	.	4d
.	8f	.
1A	4e	2c
.	4d	.
.	2c	2r
=9	=9	=9
1B	2r	4d
.	.	4g
.	4d	4.g
.	4g	.
.	.	8f
1c	4.g	8e
.	.	8c
.	.	2cc
.	8f	.
.	8e	.
.	8c	.
.	[4cc	[4ee
=10	=10	=10
1A	4cc]	[8ee
.	.	8cc
.	4.ee	8cc
.	.	8dd
.	.	2ee
.	8cc	.
.	8cc	.
.	8dd	.
1G	2ee	8r
.	.	8b
.	.	8b
.	.	8cc
.	8r	2dd
.	8b	.
.	8b	.
.	8cc	.
=11	=11	=11
1G	2dd	8r
.	.	8b
.	.	8b
.	.	8cc
.	8r	2dd
.	8b	.
.	8b	.
.	8cc	.
1F	2dd	8r
.	.	8a
.	.	8a
.	.	8b
.	8r	2cc
.	8a	.
.	8a	.
.	8b	.
=12	=12	=12
1E	2cc	8r
.	.	8g
.	.	8g
.	.	8g
.	8r	4c
.	8g	.
.	8g	4cc
.	8g	.
1F	4c	2a
.	4cc	.
.	2a	4r
.	.	4dd
=13	=13	=13
1G	4r	4.b
.	4dd	.
.	.	8cc
.	4.b	4dd
.	.	4.d
.	8cc	.
1D	4dd	.
.	.	8e
.	4.d	8f
.	.	8g
.	.	4a
.	8e	.
.	8f	[4d
.	8g	.
=14	=14	=14
1F	4a	8d]
.	.	8e
.	4.d	8f
.	.	8g
.	.	4.a
.	8e	.
.	8f	.
.	8g	8g
1F	4.a	4f
.	.	4e
.	8g	.
.	4f	4d
.	4e	4c
=15	=15	=15
(1G	4d	4B
.	4c	8g
.	.	8f
.	4B	4e
.	8g	4d
.	8f	.
1A)	4e	4c
.	4d	2f
.	4c	.
.	[4f	8e
.	.	8d
=16	=16	=16
1A	4f]	4c
.	8e	4d
.	8d	.
.	4c	4e
.	4d	4f
[1G	4e	4g
.	4f	4a
.	4g	4b
.	4a	4cc
=17	=17	=17
0G]	0b	0dd
==	==	==
*-	*-	*-
